Flat Remix Dark/panel/indicator-keyboard-Km.svg

<svg xmlns="http://www.w3.org/2000/svg" width="22" height="22" version="1.1">
 <defs>
  <style id="current-color-scheme" type="text/css">
   .ColorScheme-Text { color:#d3dae3; } .ColorScheme-Highlight { color:#5294e2; }
  </style>
 </defs>
 <rect style="opacity:0" width="22" height="22" x="0" y="0"/>
 <path style="fill:none;stroke:currentColor;stroke-width:1.99999976;stroke-linecap:round" class="ColorScheme-Text" d="M 7.999937,15 3.9999346,9.9999995 M 7.999937,6.9999998 3.9999346,12.000001 m 0,2.999999 0,-8.0000002"/>
 <path style="fill:none;stroke:currentColor;stroke-width:1.99999976;stroke-linecap:round;stroke-linejoin:round" class="ColorScheme-Text" d="m 17.999936,15 0,-8.0000003 m -6,0 3,3.9999983 3,-3.9999983 m -6,8.0000003 0,-8.0000003"/>
</svg>

<svg xmlns="http://www.w3.org/2000/svg" width="12pt" height="12pt" version="1.1" viewBox="0 0 12 12">
 <g>
  <path style="fill:none;stroke-width:2;stroke-linecap:round;stroke:rgb(82.745098%,85.490196%,89.019608%)" d="M 8 15 L 4 10 M 8 7 L 4 12 M 4 15 L 4 7" transform="matrix(0.5,0,0,0.5,0.5,0.5)"/>
  <path style="fill:none;stroke-width:2;stroke-linecap:round;stroke-linejoin:round;stroke:rgb(82.745098%,85.490196%,89.019608%)" d="M 18 15 L 18 7 M 12 7 L 15 11 L 18 7 M 12 15 L 12 7" transform="matrix(0.5,0,0,0.5,0.5,0.5)"/>
 </g>
</svg>
